img/svg/social/facebook.svg

<svg width="11" height="21" viewBox="0 0 11 21" fill="none" xmlns="http://www.w3.org/2000/svg">
<path d="M3.42748 20.1305V11.0069H0.357178V7.45117H3.42748V4.82896C3.42748 1.78591 5.28608 0.128906 8.00069 0.128906C9.30102 0.128906 10.4186 0.225719 10.7443 0.26899V3.44916L8.86154 3.45001C7.38518 3.45001 7.09932 4.15156 7.09932 5.18103V7.45117H10.6203L10.1619 11.0069H7.09932V20.1305H3.42748Z" fill="white"/>
</svg>

<svg width="11" height="21" fill="none" xmlns="http://www.w3.org/2000/svg"><path d="M3.427 20.13v-9.123H.357V7.45h3.07V4.83c0-3.043 1.86-4.7 4.574-4.7 1.3 0 2.418.097 2.743.14v3.18l-1.882.001c-1.477 0-1.763.702-1.763 1.731v2.27h3.521l-.458 3.556H7.099v9.124H3.427Z" fill="#fff"/></svg>
